X: 467
T:The Yellow Tinker
M:4/4
L:1/8
N:Posted to the woodenflute mailing list December 2001
Z:Rachel Marsh
K:G
DG ~G2 D=FGA|DG ~G2 dBcA|DG ~G2 D=FGA|cA=FA c2 BA:|
Bc|dG ~G2 dGBc|dg ~g2 fdcA|dG ~G2 defd|cAFA c2 Bc|
dG ~G2 dGBc|dg ~g2 fgaf | g2 de fgaf|gbag fdcA||
d2 BG (3Bcd BG|(3Bcd BG c2 Bc|d2 BG
(3Bcd e=f | cAFA c2 Bc|d2 BG (3Bcd BG|
(3Bcd BG c2 Bc|d^cde fafd|cAFA G2||
<end>
<start>
